images/logo-16.svg

<svg xmlns="http://www.w3.org/2000/svg" viewBox="0 0 15.2 4.2" width="15.2" height="4.2"><path d="M1 .1L2.1 3l1-2.9h1.1v4h-.8v-3l-1 3h-.6l-1.1-3v3H0v-4h1zm6.6 0v2.6c0 .4-.1.8-.4 1.1-.3.2-.7.4-1.1.4-.4 0-.8-.1-1.1-.4-.3-.2-.5-.6-.5-1V.1h.9v2.6c0 .3 0 .5.1.6l.6.2c.4 0 .7-.3.7-.7V.1h.8zM12 3.6l-.7.4-.9.2-.9-.3c-.3-.1-.5-.3-.6-.6-.1-.3-.2-.7-.2-1.1V2c0-.4 0-.8.2-1.1.1-.3.3-.5.6-.6.2-.2.6-.3.9-.3.4 0 .8.1 1.1.4.3.3.4.6.5 1h-.9c0-.2-.1-.4-.2-.5l-.5-.2c-.3 0-.5.1-.7.3-.1.3-.2.7-.2 1v.2c0 .4.1.7.3 1 .2.2.4.3.7.3.2 0 .4-.1.6-.2v-.7h-.7V2H12v1.6zm2.4-.6l-.2-.3-.6-.3-.7-.3c-.4-.1-.7-.5-.7-.9 0-.2.1-.4.2-.6.1-.2.3-.3.5-.4l.8-.2.8.2c.2.1.4.2.5.4.1.2.2.5.2.7h-.8c0-.2-.1-.4-.2-.5h-1c-.1.1-.1.2-.1.4s0 .2.2.3l.5.2c.5.2.9.3 1.1.6.2.2.3.4.3.7 0 .3-.1.7-.4.9-.3.2-.7.3-1.1.3l-.8-.2c-.3-.1-.5-.3-.6-.5-.1-.2-.2-.5-.2-.7h.8c0 .5.3.7.8.7h.5c.2-.1.2-.3.2-.5z"/><path d="M7.4 1.3s.7 0 .7.6-.7.6-.7.6V3s1.2 0 1.2-1.1S7.4.8 7.4.8v.5z"/></svg>

<?xml version="1.0" encoding="utf-8"?>
<!-- Generator: Adobe Illustrator 22.1.0, SVG Export Plug-In . SVG Version: 6.00 Build 0)  -->
<svg version="1.1" id="Layer_1" xmlns="http://www.w3.org/2000/svg" xmlns:xlink="http://www.w3.org/1999/xlink" x="0px" y="0px"
	 viewBox="0 0 15.2 4.2" style="enable-background:new 0 0 15.2 4.2;" xml:space="preserve">
<path d="M1,0.1L2.1,3l1-2.9h1.1v4H3.4v-3l-1,3H1.8l-1.1-3v3H0v-4H1z M7.6,0.1v2.6c0,0.4-0.1,0.8-0.4,1.1C6.9,4,6.5,4.2,6.1,4.2
	C5.7,4.2,5.3,4.1,5,3.8c-0.3-0.2-0.5-0.6-0.5-1V0.1h0.9v2.6c0,0.3,0,0.5,0.1,0.6l0.6,0.2c0.4,0,0.7-0.3,0.7-0.7V0.1H7.6z M12,3.6
	L11.3,4l-0.9,0.2L9.5,3.9C9.2,3.8,9,3.6,8.9,3.3C8.8,3,8.7,2.6,8.7,2.2V2c0-0.4,0-0.8,0.2-1.1C9,0.6,9.2,0.4,9.5,0.3
	C9.7,0.1,10.1,0,10.4,0c0.4,0,0.8,0.1,1.1,0.4c0.3,0.3,0.4,0.6,0.5,1h-0.9c0-0.2-0.1-0.4-0.2-0.5l-0.5-0.2c-0.3,0-0.5,0.1-0.7,0.3
	C9.6,1.3,9.5,1.7,9.5,2v0.2c0,0.4,0.1,0.7,0.3,1c0.2,0.2,0.4,0.3,0.7,0.3c0.2,0,0.4-0.1,0.6-0.2V2.6h-0.7V2H12L12,3.6z M14.4,3
	l-0.2-0.3l-0.6-0.3l-0.7-0.3c-0.4-0.1-0.7-0.5-0.7-0.9c0-0.2,0.1-0.4,0.2-0.6c0.1-0.2,0.3-0.3,0.5-0.4L13.7,0l0.8,0.2
	c0.2,0.1,0.4,0.2,0.5,0.4c0.1,0.2,0.2,0.5,0.2,0.7h-0.8c0-0.2-0.1-0.4-0.2-0.5h-1c-0.1,0.1-0.1,0.2-0.1,0.4s0,0.2,0.2,0.3l0.5,0.2
	c0.5,0.2,0.9,0.3,1.1,0.6c0.2,0.2,0.3,0.4,0.3,0.7c0,0.3-0.1,0.7-0.4,0.9c-0.3,0.2-0.7,0.3-1.1,0.3L12.9,4c-0.3-0.1-0.5-0.3-0.6-0.5
	c-0.1-0.2-0.2-0.5-0.2-0.7h0.8c0,0.5,0.3,0.7,0.8,0.7h0.5C14.4,3.4,14.4,3.2,14.4,3z"/>
<path d="M7.4,1.3c0,0,0.7,0,0.7,0.6S7.4,2.5,7.4,2.5V3c0,0,1.2,0,1.2-1.1S7.4,0.8,7.4,0.8L7.4,1.3z"/>
</svg>
